X: 49
M:C|
L:1/8
K:Bb
vFuA|B>fd>a A>ec>A|F>dB>F D>BF>D|\
E>Gc>e D>FB>d|((3cdc) ((3ABG) F2 (GA)|
|:(vfe)|d>Bf>d b>fd>B|c>Af>c a>fc>A|\


